lib/svg/browser.svg

<svg xmlns="http://www.w3.org/2000/svg" width="14" height="16" viewBox="0 0 14 16"><path d="M5 3h1v1H5V3zM3 3h1v1H3V3zM1 3h1v1H1V3zm12 10H1V5h12v8zm0-9H7V3h6v1zm1-1c0-.55-.45-1-1-1H1c-.55 0-1 .45-1 1v10c0 .55.45 1 1 1h12c.55 0 1-.45 1-1V3z"/></svg>

<?xml version="1.0" encoding="UTF-8" standalone="no"?>
<svg width="14px" height="16px" viewBox="0 0 14 16" version="1.1" xmlns="http://www.w3.org/2000/svg" xmlns:xlink="http://www.w3.org/1999/xlink">
    <!-- Generator: Sketch 3.8.3 (29802) - http://www.bohemiancoding.com/sketch -->
    <title>browser</title>
    <desc>Created with Sketch.</desc>
    <defs></defs>
    <g id="Octicons" stroke="none" stroke-width="1" fill="none" fill-rule="evenodd">
        <g id="browser" fill="#000000">
            <path d="M5,3 L6,3 L6,4 L5,4 L5,3 L5,3 Z M3,3 L4,3 L4,4 L3,4 L3,3 L3,3 Z M1,3 L2,3 L2,4 L1,4 L1,3 L1,3 Z M13,13 L1,13 L1,5 L13,5 L13,13 L13,13 Z M13,4 L7,4 L7,3 L13,3 L13,4 L13,4 Z M14,3 C14,2.45 13.55,2 13,2 L1,2 C0.45,2 0,2.45 0,3 L0,13 C0,13.55 0.45,14 1,14 L13,14 C13.55,14 14,13.55 14,13 L14,3 L14,3 Z" id="Shape"></path>
        </g>
    </g>
</svg>
